src/assets/filled/PlayRemove.svg

<svg width="24" height="24" viewBox="0 0 24 24"  xmlns="http://www.w3.org/2000/svg">
<path d="M21.28 15.72C20.63 15.27 19.84 15 19 15C18.06 15 17.19 15.33 16.5 15.88C15.58 16.61 15 17.74 15 19C15 19.75 15.21 20.46 15.58 21.06C15.62 21.13 15.67 21.2 15.73 21.27C16.43 22.31 17.63 23 19 23C20.01 23 20.93 22.63 21.63 22C21.94 21.74 22.21 21.42 22.42 21.06C22.79 20.46 23 19.75 23 19C23 17.64 22.32 16.44 21.28 15.72ZM20.6 20.58C20.45 20.73 20.26 20.8 20.07 20.8C19.88 20.8 19.69 20.73 19.54 20.58L19.01 20.05L18.46 20.6C18.31 20.75 18.12 20.82 17.93 20.82C17.74 20.82 17.55 20.75 17.4 20.6C17.11 20.31 17.11 19.83 17.4 19.54L17.95 18.99L17.42 18.46C17.13 18.17 17.13 17.69 17.42 17.4C17.71 17.11 18.19 17.11 18.48 17.4L19.01 17.93L19.51 17.43C19.8 17.14 20.28 17.14 20.57 17.43C20.86 17.72 20.86 18.2 20.57 18.49L20.07 18.99L20.6 19.52C20.89 19.81 20.89 20.28 20.6 20.58Z" />
<path d="M21.85 10.2499C21.07 5.79992 17.24 2.34992 12.73 2.02992C6.62996 1.58992 1.58996 6.63991 2.02996 12.7299C2.34996 17.2399 5.79996 21.0599 10.25 21.8399C11.4 22.0399 12.52 22.0399 13.59 21.8599C13.9 21.8099 14.08 21.4699 13.96 21.1899C13.66 20.5099 13.5 19.7599 13.5 18.9899C13.5 17.2999 14.25 15.7399 15.57 14.6999C16.54 13.9199 17.76 13.4899 19 13.4899C19.78 13.4899 20.52 13.6499 21.19 13.9499C21.48 14.0799 21.81 13.8899 21.87 13.5799C22.05 12.5199 22.05 11.3999 21.85 10.2499ZM14.5 13.5699L13.3 14.2599L12.1 14.9499C10.61 15.8099 9.38996 15.1099 9.38996 13.3799V11.9999V10.6099C9.38996 8.88991 10.61 8.17992 12.1 9.03992L13.3 9.72992L14.5 10.4199C15.99 11.2999 15.99 12.6999 14.5 13.5699Z" />
</svg>

<?xml version="1.0" encoding="UTF-8"?>
<svg width="24" height="24" viewBox="0 0 24 24" xmlns="http://www.w3.org/2000/svg">
 <path d="m21.28 15.72c-0.65-0.45-1.44-0.72-2.28-0.72-0.94 0-1.81 0.33-2.5 0.88-0.92 0.73-1.5 1.86-1.5 3.12 0 0.75 0.21 1.46 0.58 2.06 0.04 0.07 0.09 0.14 0.15 0.21 0.7 1.04 1.9 1.73 3.27 1.73 1.01 0 1.93-0.37 2.63-1 0.31-0.26 0.58-0.58 0.79-0.94 0.37-0.6 0.58-1.31 0.58-2.06 0-1.36-0.68-2.56-1.72-3.28zm-0.68 4.86c-0.15 0.15-0.34 0.22-0.53 0.22s-0.38-0.07-0.53-0.22l-0.53-0.53-0.55 0.55c-0.15 0.15-0.34 0.22-0.53 0.22s-0.38-0.07-0.53-0.22c-0.29-0.29-0.29-0.77 0-1.06l0.55-0.55-0.53-0.53c-0.29-0.29-0.29-0.77 0-1.06s0.77-0.29 1.06 0l0.53 0.53 0.5-0.5c0.29-0.29 0.77-0.29 1.06 0s0.29 0.77 0 1.06l-0.5 0.5 0.53 0.53c0.29 0.29 0.29 0.76 0 1.06z"/>
 <path d="m21.85 10.25c-0.78-4.45-4.61-7.9-9.12-8.22-6.1-0.44-11.14 4.61-10.7 10.7 0.32 4.51 3.77 8.33 8.22 9.11 1.15 0.2 2.27 0.2 3.34 0.02 0.31-0.05 0.49-0.39 0.37-0.67-0.3-0.68-0.46-1.43-0.46-2.2 0-1.69 0.75-3.25 2.07-4.29 0.97-0.78 2.19-1.21 3.43-1.21 0.78 0 1.52 0.16 2.19 0.46 0.29 0.13 0.62-0.06 0.68-0.37 0.18-1.06 0.18-2.18-0.02-3.33zm-7.35 3.32-2.4 1.38c-1.49 0.86-2.71 0.16-2.71-1.57v-2.77c0-1.72 1.22-2.43 2.71-1.57l2.4 1.38c1.49 0.88 1.49 2.28 0 3.15z"/>
</svg>
